Yaru++/apps/16/soundconverter.svg

<svg height="16" width="16" xmlns="http://www.w3.org/2000/svg"><g fill="#808080"><path d="m6.1896519.40882002v12.31681198c-.603615-.27072-1.4231953-.420261-2.3275866-.420261-1.8521934 0-3.3620653.690782-3.3620653 1.551728 0 .860939 1.5098719 1.551721 3.3620653 1.551721 1.8521981 0 3.3620709-.690775 3.3620709-1.551721v-10.3448287c2.4823519 0 1.8811444 2.6933203 5.6896568 2.5862063-2.9749002.00769-2.0147-5.66234628-5.6896568-5.68965658z" stroke-width=".9375"/><path d="m14 13v-4 1h1.497139l-2.089968-3.135797-2.089968 3.135797h1.682797v-1 4z"/><path d="m9.497139 8.000001v3.999999-1h-1.497139l2.089968 3.135797 2.089968-3.135797h-1.682797v1-3.999999z"/></g></svg>

<?xml version="1.0" encoding="UTF-8" standalone="no"?>
<svg
   xmlns:osb="http://www.openswatchbook.org/uri/2009/osb"
   xmlns:dc="http://purl.org/dc/elements/1.1/"
   xmlns:cc="http://creativecommons.org/ns#"
   xmlns:rdf="http://www.w3.org/1999/02/22-rdf-syntax-ns#"
   xmlns:svg="http://www.w3.org/2000/svg"
   xmlns="http://www.w3.org/2000/svg"
   xmlns:sodipodi="http://sodipodi.sourceforge.net/DTD/sodipodi-0.dtd"
   xmlns:inkscape="http://www.inkscape.org/namespaces/inkscape"
   width="16"
   height="16"
   version="1.1"
   id="svg17"
   sodipodi:docname="soundconverter.svg"
   inkscape:version="0.92.4 (5da689c313, 2019-01-14)">
  <metadata
     id="metadata21">
    <rdf:RDF>
      <cc:Work
         rdf:about="">
        <dc:format>image/svg+xml</dc:format>
        <dc:type
           rdf:resource="http://purl.org/dc/dcmitype/StillImage" />
      </cc:Work>
    </rdf:RDF>
  </metadata>
  <sodipodi:namedview
     pagecolor="#ffffff"
     bordercolor="#666666"
     borderopacity="1"
     objecttolerance="10"
     gridtolerance="10"
     guidetolerance="10"
     inkscape:pageopacity="0"
     inkscape:pageshadow="2"
     inkscape:window-width="1920"
     inkscape:window-height="1016"
     id="namedview19"
     showgrid="true"
     inkscape:zoom="55.933333"
     inkscape:cx="11.110906"
     inkscape:cy="7.8361944"
     inkscape:window-x="0"
     inkscape:window-y="27"
     inkscape:window-maximized="1"
     inkscape:current-layer="svg17">
    <inkscape:grid
       type="xygrid"
       id="grid831" />
  </sodipodi:namedview>
  <defs
     id="defs9">
    <linearGradient
       id="linearGradient5606"
       osb:paint="solid">
      <stop
         id="stop5608"
         offset="0"
         style="stop-color:#000000" />
    </linearGradient>
    <linearGradient
       id="linearGradient4526"
       osb:paint="solid">
      <stop
         id="stop4528"
         offset="0"
         style="stop-color:#ffffff" />
    </linearGradient>
    <linearGradient
       id="linearGradient3600-4"
       osb:paint="gradient">
      <stop
         id="stop3602-7"
         offset="0"
         style="stop-color:#f4f4f4" />
      <stop
         id="stop3604-6"
         offset="1"
         style="stop-color:#dbdbdb" />
    </linearGradient>
  </defs>
  <path
     style="fill:#808080;stroke-width:0.9375"
     d="M 6.1896519,0.40882002 V 12.725632 C 5.5860369,12.454912 4.7664566,12.305371 3.8620653,12.305371 2.0098719,12.305371 0.5,12.996153 0.5,13.857099 c 0,0.860939 1.5098719,1.551721 3.3620653,1.551721 1.8521981,0 3.3620709,-0.690775 3.3620709,-1.551721 V 3.5122703 c 2.4823519,0 1.8811444,2.6933203 5.6896568,2.5862063 -2.9749002,0.00769 -2.0147,-5.66234628 -5.6896568,-5.68965658 z"
     id="path11"
     inkscape:connector-curvature="0" />
  <path
     id="path833"
     style="fill:#808080"
     d="m 14,13 v -4 1 h 1.497139 L 13.407171,6.864203 11.317203,10 H 13 v -1 4 z"
     inkscape:connector-curvature="0"
     sodipodi:nodetypes="cccccccccc" />
  <path
     sodipodi:nodetypes="cccccccccc"
     inkscape:connector-curvature="0"
     d="M 9.497139,8.000001 V 12 11 H 8 L 10.089968,14.135797 12.179936,11 h -1.682797 v 1 -3.999999 z"
     style="fill:#808080"
     id="path835" />
</svg>
